X:1
T:Tee Roo
M:3/4
L:1/4
K:C
 z2 E| G2 E| G G E| G- E D| C2 c| c- A c| c- A c| d- c A| G2 G| c2 A|\
 G G E/2E/2| G2 G| D2 D| B2B/2-A/2| G2 E3/4 E/4| G- E D| C2 z|
